X: 1
T:Jack Maguire's
R:reel
S:Session at Shoot the Crows, Sligo, 1992
H:Also played with single parts
D:Shaskeen: 25th Silver Jubilee Collection
Z:id:hn-reel-405
M:C|
K:D
DF~F2 DG~G2|DF~F2 EFDC|DF~F2 ABde|fdAG FGEF|
DF~F2 DG~G2|DF~F2 EFDC|DF~F2 ABde|fdAG FDD2:|
|:fgaf g2ag|fgaf gfeg|fgaf g2ag|f2eg fdde|
fgaf g2ag|fgaf gfeg|fdAF G2ag|fdAG FDD2:|
